src/lib/packages/icons/src/assets/filled/pen.svg

<svg width="24" height="24" viewBox="0 0 24 24" fill="none" xmlns="http://www.w3.org/2000/svg">
<path d="M17.0371 11.577C17.1541 11.694 17.1541 11.8849 17.0371 12.0019L8 21H3V16L11.998 6.963C12.115 6.845 12.3051 6.845 12.4231 6.963L17.0371 11.577ZM20.4099 5.81005L18.1899 3.58995C17.4059 2.80595 16.1341 2.80595 15.3501 3.58995L13.4719 5.468C13.3549 5.58501 13.3549 5.77496 13.4719 5.89196L18.1079 10.5279C18.2249 10.6449 18.415 10.6449 18.532 10.5279L20.4099 8.65001C21.1939 7.86601 21.1939 6.59405 20.4099 5.81005Z" fill="currentColor"/>
</svg>

<svg xmlns="http://www.w3.org/2000/svg" width="24" height="24" fill="none"><path fill="currentColor" d="M17.037 11.577a.301.301 0 0 1 0 .425L8 21H3v-5l8.998-9.037a.3.3 0 0 1 .425 0l4.614 4.614ZM20.41 5.81l-2.22-2.22a2.008 2.008 0 0 0-2.84 0l-1.878 1.878a.3.3 0 0 0 0 .424l4.636 4.636a.3.3 0 0 0 .424 0L20.41 8.65a2.009 2.009 0 0 0 0-2.84Z"/></svg>
